X: 10488
T: Donny The Post
R: reel
M: 4/4
K: Amajor
|:(3efg|a2 ga faef|ecef ecBA|BABc dcBA|F2 B2 B2 (3efg|
a2 ga faea|ecef ecBA|BABc dcBA|E2 A2 A2:|
CD|EA,CE AEAc|e2 ed cBcA|BABc dcBA|F2 B2 B2 CD|
EA,CE AEAc|e2 ed cBcA|BABc dcBA|E2 A2 A2 CD|
EA,CE AEAc|e2 ed cBcA|BABc dcBA|F2 B2 B2 (3efg|
a2 ga faea|ecef ecBA|BABc dcBA|E2 A2 A2||

